;FLAVOR:Marlin
;TIME:2917
;Filament used: 3.02352m
;Layer height: 0.15
;MINX:37.2
;MINY:12.2
;MINZ:0.3
;MAXX:72.8
;MAXY:97.8
;MAXZ:25.05
;Generated with Cura_SteamEngine 4.13.1
M104 S180
M105
M109 S180
M82 ;absolute extrusion mode
G28 ;Home
G1 Z15.0 F6000 ;Move the platform down 15mm
;Prime the extruder
G92 E0
G1 F200 E3
G92 E0
G92 E0
G92 E0
;LAYER_COUNT:166
;LAYER:0
M107
G0 F3600 X37.831 Y16.926 Z0.3
;TYPE:SKIRT
G1 F1800 X38.179 Y16.217 E0.0394
G1 X38.597 Y15.546 E0.07884
G1 X39.08 Y14.922 E0.11821
G1 X39.623 Y14.349 E0.1576
G1 X40.222 Y13.834 E0.19701
G1 X40.87 Y13.383 E0.2364
G1 X41.561 Y12.999 E0.27583
G1 X42.286 Y12.687 E0.31521
G1 X43.039 Y12.45 E0.3546
G1 X43.813 Y12.291 E0.39402
G1 X44.598 Y12.21 E0.43339
G1 X45 Y12.2 E0.45345
G1 X65 Y12.2 E1.45126
G1 X65.789 Y12.24 E1.49067
G1 X66.569 Y12.359 E1.53003
G1 X67.334 Y12.557 E1.56946
G1 X68.074 Y12.831 E1.60883
G1 X68.783 Y13.179 E1.64823
G1 X69.454 Y13.597 E1.68767
G1 X70.078 Y14.08 E1.72704
G1 X70.651 Y14.623 E1.76642
G1 X71.166 Y15.222 E1.80583
G1 X71.617 Y15.87 E1.84522
G1 X72.001 Y16.561 E1.88466
G1 X72.313 Y17.286 E1.92404
G1 X72.55 Y18.039 E1.96342
G1 X72.709 Y18.813 E2.00284
G1 X72.79 Y19.598 E2.04222
G1 X72.8 Y20 E2.06228
G1 X72.8 Y90 E5.55459
G1 X72.76 Y90.789 E5.59401
G1 X72.641 Y91.569 E5.63337
G1 X72.443 Y92.334 E5.67279
G1 X72.169 Y93.074 E5.71216
G1 X71.821 Y93.783 E5.75157
G1 X71.403 Y94.454 E5.79101
G1 X70.92 Y95.078 E5.83037
G1 X70.377 Y95.651 E5.86976
G1 X69.778 Y96.166 E5.90917
G1 X69.13 Y96.617 E5.94856
G1 X68.439 Y97.001 E5.988
G1 X67.714 Y97.313 E6.02737
G1 X66.961 Y97.55 E6.06676
G1 X66.187 Y97.709 E6.10618
G1 X65.402 Y97.79 E6.14555
G1 X65 Y97.8 E6.16561
G1 X45 Y97.8 E7.16342
G1 X44.211 Y97.76 E7.20283
G1 X43.431 Y97.641 E7.2422
G1 X42.666 Y97.443 E7.28162
G1 X41.926 Y97.169 E7.32099
G1 X41.217 Y96.821 E7.36039
G1 X40.546 Y96.403 E7.39983
G1 X39.922 Y95.92 E7.4392
G1 X39.349 Y95.377 E7.47858
G1 X38.834 Y94.778 E7.518
G1 X38.383 Y94.13 E7.55738
G1 X37.999 Y93.439 E7.59682
G1 X37.687 Y92.714 E7.6362
G1 X37.45 Y91.961 E7.67558
G1 X37.291 Y91.187 E7.71501
G1 X37.21 Y90.402 E7.75438
G1 X37.2 Y90 E7.77444
G1 X37.2 Y20 E11.26675
G1 X37.24 Y19.211 E11.30617
G1 X37.359 Y18.431 E11.34553
G1 X37.557 Y17.666 E11.38496
G1 X37.831 Y16.926 E11.42432
G0 F3600 X38.231 Y17.01
G1 F1800 X38.578 Y16.324 E11.46268
G1 X38.994 Y15.677 E11.50105
G1 X39.475 Y15.077 E11.53942
G1 X40.016 Y14.53 E11.5778
G1 X40.611 Y14.042 E11.61619
G1 X41.253 Y13.619 E11.65455
G1 X41.936 Y13.264 E11.69295
G1 X42.651 Y12.983 E11.73128
G1 X43.393 Y12.777 E11.7697
G1 X44.151 Y12.649 E11.80805
G1 X45 Y12.6 E11.85048
G1 X65 Y12.6 E12.84828
G1 X65.768 Y12.64 E12.88665
G1 X66.528 Y12.759 E12.92503
G1 X67.271 Y12.957 E12.96339
G1 X67.99 Y13.231 E13.00178
G1 X68.676 Y13.578 E13.04013
G1 X69.323 Y13.994 E13.07851
G1 X69.923 Y14.475 E13.11687
G1 X70.47 Y15.016 E13.15526
G1 X70.958 Y15.611 E13.19365
G1 X71.381 Y16.253 E13.23201
G1 X71.736 Y16.936 E13.27041
G1 X72.017 Y17.651 E13.30874
G1 X72.223 Y18.393 E13.34715
G1 X72.351 Y19.151 E13.38551
G1 X72.4 Y20 E13.42793
G1 X72.4 Y90 E16.92025
G1 X72.36 Y90.768 E16.95862
G1 X72.241 Y91.528 E16.99699
G1 X72.043 Y92.271 E17.03536
G1 X71.769 Y92.99 E17.07374
G1 X71.422 Y93.676 E17.1121
G1 X71.006 Y94.323 E17.15047
G1 X70.525 Y94.923 E17.18884
G1 X69.984 Y95.47 E17.22722
G1 X69.389 Y95.958 E17.26561
G1 X68.747 Y96.381 E17.30397
G1 X68.064 Y96.736 E17.34237
G1 X67.349 Y97.017 E17.3807
G1 X66.607 Y97.223 E17.41912
G1 X65.849 Y97.351 E17.45747
G1 X65 Y97.4 E17.4999
G1 X45 Y97.4 E18.4977
G1 X44.232 Y97.36 E18.53607
G1 X43.472 Y97.241 E18.57445
G1 X42.729 Y97.043 E18.61281
G1 X42.01 Y96.769 E18.6512
G1 X41.324 Y96.422 E18.68955
G1 X40.677 Y96.006 E18.72793
G1 X40.077 Y95.525 E18.76629
G1 X39.53 Y94.984 E18.80468
G1 X39.042 Y94.389 E18.84307
G1 X38.619 Y93.747 E18.88142
G1 X38.264 Y93.064 E18.91983
G1 X37.983 Y92.349 E18.95816
G1 X37.777 Y91.607 E18.99657
G1 X37.649 Y90.849 E19.03493
G1 X37.6 Y90 E19.07735
G1 X37.6 Y20 E22.56967
G1 X37.64 Y19.232 E22.60804
G1 X37.759 Y18.472 E22.64641
G1 X37.957 Y17.729 E22.68478
G1 X38.231 Y17.01 E22.72316
G0 F3600 X38.63 Y17.097
G1 F1800 X38.977 Y16.434 E22.7605
G1 X39.392 Y15.811 E22.79784
G1 X39.871 Y15.237 E22.83514
G1 X40.408 Y14.716 E22.87247
G1 X40.998 Y14.257 E22.90976
G1 X41.634 Y13.862 E22.94712
G1 X42.308 Y13.538 E22.98442
G1 X43.013 Y13.288 E23.02174
G1 X43.741 Y13.114 E23.05909
G1 X44.483 Y13.019 E23.09641
G1 X45 Y13 E23.12222
G1 X65 Y13 E24.12002
G1 X65.747 Y13.04 E24.15734
G1 X66.485 Y13.159 E24.19464
G1 X67.207 Y13.357 E24.23199
G1 X67.903 Y13.63 E24.26929
G1 X68.566 Y13.977 E24.30662
G1 X69.189 Y14.392 E24.34397
G1 X69.763 Y14.871 E24.38127
G1 X70.284 Y15.408 E24.41859
G1 X70.743 Y15.998 E24.45589
G1 X71.138 Y16.634 E24.49324
G1 X71.462 Y17.308 E24.53055
G1 X71.712 Y18.013 E24.56787
G1 X71.886 Y18.741 E24.60521
G1 X71.981 Y19.483 E24.64253
G1 X72 Y20 E24.66834
G1 X72 Y90 E28.16066
G1 X71.96 Y90.747 E28.19798
G1 X71.841 Y91.485 E28.23527
G1 X71.643 Y92.207 E28.27262
G1 X71.37 Y92.903 E28.30992
G1 X71.023 Y93.566 E28.34726
G1 X70.608 Y94.189 E28.3846
G1 X70.129 Y94.763 E28.4219
G1 X69.592 Y95.284 E28.45923
G1 X69.002 Y95.743 E28.49652
G1 X68.366 Y96.138 E28.53387
G1 X67.692 Y96.462 E28.57118
G1 X66.987 Y96.712 E28.6085
G1 X66.259 Y96.886 E28.64584
G1 X65.517 Y96.981 E28.68317
G1 X65 Y97 E28.70898
G1 X45 Y97 E29.70678
G1 X44.253 Y96.96 E29.7441
G1 X43.515 Y96.841 E29.7814
G1 X42.793 Y96.643 E29.81875
G1 X42.097 Y96.37 E29.85605
G1 X41.434 Y96.023 E29.89338
G1 X40.811 Y95.608 E29.93073
G1 X40.237 Y95.129 E29.96802
G1 X39.716 Y94.592 E30.00535
G1 X39.257 Y94.002 E30.04265
G1 X38.862 Y93.366 E30.08
G1 X38.538 Y92.692 E30.11731
G1 X38.288 Y91.987 E30.15463
G1 X38.114 Y91.259 E30.19197
G1 X38.019 Y90.517 E30.22929
G1 X38 Y90 E30.2551
G1 X38 Y20 E33.74741
G1 X38.04 Y19.253 E33.78474
G1 X38.159 Y18.515 E33.82203
G1 X38.357 Y17.793 E33.85938
G1 X38.63 Y17.097 E33.89668
G0 F3600 X39.03 Y17.186
G1 F1800 X39.375 Y16.547 E33.93291
G1 X39.789 Y15.95 E33.96915
G1 X40.265 Y15.402 E34.00537
G1 X40.799 Y14.909 E34.04163
G1 X41.384 Y14.479 E34.07785
G1 X42.013 Y14.115 E34.11411
G1 X42.678 Y13.822 E34.15036
G1 X43.371 Y13.604 E34.18661
G1 X44.083 Y13.464 E34.22281
G1 X45 Y13.4 E34.26867
G1 X65 Y13.4 E35.26647
G1 X65.725 Y13.44 E35.3027
G1 X66.442 Y13.559 E35.33896
G1 X67.141 Y13.757 E35.3752
G1 X67.814 Y14.03 E35.41144
G1 X68.453 Y14.375 E35.44767
G1 X69.05 Y14.789 E35.48391
G1 X69.598 Y15.265 E35.52012
G1 X70.091 Y15.799 E35.55638
G1 X70.521 Y16.384 E35.59261
G1 X70.885 Y17.013 E35.62886
G1 X71.178 Y17.678 E35.66512
G1 X71.396 Y18.371 E35.70136
G1 X71.536 Y19.083 E35.73756
G1 X71.6 Y20 E35.78342
G1 X71.6 Y90 E39.27574
G1 X71.56 Y90.725 E39.31196
G1 X71.441 Y91.442 E39.34822
G1 X71.243 Y92.141 E39.38447
G1 X70.97 Y92.814 E39.4207
G1 X70.625 Y93.453 E39.45693
G1 X70.211 Y94.05 E39.49318
G1 X69.735 Y94.598 E39.52939
G1 X69.201 Y95.091 E39.56565
G1 X68.616 Y95.521 E39.60187
G1 X67.987 Y95.885 E39.63813
G1 X67.322 Y96.178 E39.67438
G1 X66.629 Y96.396 E39.71063
G1 X65.917 Y96.536 E39.74683
G1 X65 Y96.6 E39.79269
G1 X45 Y96.6 E40.79049
G1 X44.275 Y96.56 E40.82672
G1 X43.558 Y96.441 E40.86298
G1 X42.859 Y96.243 E40.89923
G1 X42.186 Y95.97 E40.93546
G1 X41.547 Y95.625 E40.97169
G1 X40.95 Y95.211 E41.00793
G1 X40.402 Y94.735 E41.04415
G1 X39.909 Y94.201 E41.08041
G1 X39.479 Y93.616 E41.11663
G1 X39.115 Y92.987 E41.15289
G1 X38.822 Y92.322 E41.18914
G1 X38.604 Y91.629 E41.22538
G1 X38.464 Y90.917 E41.26159
G1 X38.4 Y90 E41.30745
G1 X38.4 Y20 E44.79976
G1 X38.44 Y19.275 E44.83599
G1 X38.559 Y18.558 E44.87225
G1 X38.757 Y17.859 E44.90849
G1 X39.03 Y17.186 E44.94473
G0 F3600 X39.429 Y17.279
G1 F1800 X39.774 Y16.665 E44.97986
G1 X40.185 Y16.094 E45.01496
G1 X40.659 Y15.573 E45.0501
G1 X41.189 Y15.109 E45.08525
G1 X41.768 Y14.709 E45.12036
G1 X42.389 Y14.377 E45.15549
G1 X43.043 Y14.117 E45.1906
G1 X43.723 Y13.933 E45.22574
G1 X44.419 Y13.827 E45.26087
G1 X45 Y13.8 E45.28989
G1 X65 Y13.8 E46.28769
G1 X65.703 Y13.84 E46.32282
G1 X66.397 Y13.959 E46.35795
G1 X67.072 Y14.157 E46.39304
G1 X67.721 Y14.429 E46.42815
G1 X68.335 Y14.774 E46.46329
G1 X68.906 Y15.185 E46.49839
G1 X69.427 Y15.659 E46.53353
G1 X69.891 Y16.189 E46.56867
G1 X70.291 Y16.768 E46.60378
G1 X70.623 Y17.389 E46.63891
G1 X70.883 Y18.043 E46.67402
G1 X71.067 Y18.723 E46.70917
G1 X71.173 Y19.419 E46.74429
G1 X71.2 Y20 E46.77331
G1 X71.2 Y90 E50.26563
G1 X71.16 Y90.703 E50.30075
G1 X71.041 Y91.397 E50.33588
G1 X70.843 Y92.072 E50.37098
G1 X70.571 Y92.721 E50.40609
G1 X70.226 Y93.335 E50.44122
G1 X69.815 Y93.906 E50.47632
G1 X69.341 Y94.427 E50.51146
G1 X68.811 Y94.891 E50.54661
G1 X68.232 Y95.291 E50.58172
G1 X67.611 Y95.623 E50.61685
G1 X66.957 Y95.883 E50.65196
G1 X66.277 Y96.067 E50.6871
G1 X65.581 Y96.173 E50.72223
G1 X65 Y96.2 E50.75125
G1 X45 Y96.2 E51.74905
G1 X44.297 Y96.16 E51.78418
G1 X43.603 Y96.041 E51.81931
G1 X42.928 Y95.843 E51.8544
G1 X42.279 Y95.571 E51.88951
G1 X41.665 Y95.226 E51.92465
G1 X41.094 Y94.815 E51.95975
G1 X40.573 Y94.341 E51.99489
G1 X40.109 Y93.811 E52.03003
G1 X39.709 Y93.232 E52.06514
G1 X39.377 Y92.611 E52.10027
G1 X39.117 Y91.957 E52.13538
G1 X38.933 Y91.277 E52.17053
G1 X38.827 Y90.581 E52.20565
G1 X38.8 Y90 E52.23467
G1 X38.8 Y20 E55.72699
G1 X38.84 Y19.297 E55.76211
G1 X38.959 Y18.603 E55.79724
G1 X39.157 Y17.928 E55.83234
G1 X39.429 Y17.279 E55.86745
G0 F3600 X39.556 Y17.998
G1 F1800 X39.828 Y17.374 E55.90141
G1 X40.172 Y16.786 E55.93539
G1 X40.582 Y16.242 E55.96938
G1 X41.053 Y15.751 E56.00332
G1 X41.578 Y15.317 E56.03731
G1 X42.15 Y14.948 E56.07127
G1 X42.762 Y14.649 E56.10525
G1 X43.404 Y14.424 E56.13919
G1 X44.069 Y14.275 E56.17319
G1 X45 Y14.2 E56.21979
G1 X65 Y14.2 E57.21759
G1 X65.68 Y14.24 E57.25157
G1 X66.35 Y14.359 E57.28552
G1 X67.002 Y14.556 E57.3195
G1 X67.626 Y14.828 E57.35347
G1 X68.214 Y15.172 E57.38745
G1 X68.758 Y15.582 E57.42144
G1 X69.249 Y16.053 E57.45538
G1 X69.683 Y16.578 E57.48937
G1 X70.052 Y17.15 E57.52333
G1 X70.351 Y17.762 E57.55731
G1 X70.576 Y18.404 E57.59125
G1 X70.725 Y19.069 E57.62525
G1 X70.8 Y20 E57.67184
G1 X70.8 Y90 E61.16416
G1 X70.76 Y90.68 E61.19814
G1 X70.641 Y91.35 E61.23209
G1 X70.444 Y92.002 E61.26607
G1 X70.172 Y92.626 E61.30003
G1 X69.828 Y93.214 E61.33402
G1 X69.418 Y93.758 E61.36801
G1 X68.947 Y94.249 E61.40195
G1 X68.422 Y94.683 E61.43593
G1 X67.85 Y95.052 E61.46989
G1 X67.238 Y95.351 E61.50388
G1 X66.596 Y95.576 E61.53782
G1 X65.931 Y95.725 E61.57181
G1 X65 Y95.8 E61.61841
G1 X45 Y95.8 E62.61622
G1 X44.32 Y95.76 E62.6502
G1 X43.65 Y95.641 E62.68415
G1 X42.998 Y95.444 E62.71813
G1 X42.374 Y95.172 E62.75209
G1 X41.786 Y94.828 E62.78608
G1 X41.242 Y94.418 E62.82006
G1 X40.751 Y93.947 E62.85401
G1 X40.317 Y93.422 E62.88799
G1 X39.948 Y92.85 E62.92195
G1 X39.649 Y92.238 E62.95593
G1 X39.424 Y91.596 E62.98987
G1 X39.275 Y90.931 E63.02387
G1 X39.2 Y90 E63.07047
G1 X39.2 Y20 E66.56279
G1 X39.24 Y19.32 E66.59677
G1 X39.359 Y18.65 E66.63072
G1 X39.556 Y17.998 E66.6647
G0 F3600 X39.956 Y18.071
G1 F1800 X40.228 Y17.473 E66.69748
G1 X40.57 Y16.912 E66.73025
G1 X40.978 Y16.397 E66.76303
G1 X41.445 Y15.935 E66.79581
G1 X41.965 Y15.534 E66.82857
G1 X42.529 Y15.198 E66.86132
G1 X43.131 Y14.934 E66.89412
G1 X43.76 Y14.744 E66.9269
G1 X44.407 Y14.633 E66.95965
G1 X45 Y14.6 E66.98928
G1 X65 Y14.6 E67.98708
G1 X65.656 Y14.64 E68.01987
G1 X66.302 Y14.759 E68.05264
G1 X66.929 Y14.956 E68.08543
G1 X67.527 Y15.228 E68.11821
G1 X68.088 Y15.57 E68.15099
G1 X68.603 Y15.978 E68.18377
G1 X69.065 Y16.445 E68.21654
G1 X69.466 Y16.965 E68.2493
G1 X69.802 Y17.529 E68.28205
G1 X70.066 Y18.131 E68.31485
G1 X70.256 Y18.76 E68.34763
G1 X70.367 Y19.407 E68.38038
G1 X70.4 Y20 E68.41001
G1 X70.4 Y90 E71.90232
G1 X70.36 Y90.656 E71.93511
G1 X70.241 Y91.302 E71.96788
G1 X70.044 Y91.929 E72.00067
G1 X69.772 Y92.527 E72.03345
G1 X69.43 Y93.088 E72.06623
G1 X69.022 Y93.603 E72.09901
G1 X68.555 Y94.065 E72.13178
G1 X68.035 Y94.466 E72.16454
G1 X67.471 Y94.802 E72.1973
G1 X66.869 Y95.066 E72.23009
G1 X66.24 Y95.256 E72.26287
G1 X65.593 Y95.367 E72.29562
G1 X65 Y95.4 E72.32525
G1 X45 Y95.4 E73.32306
G1 X44.344 Y95.36 E73.35585
G1 X43.698 Y95.241 E73.38862
G1 X43.071 Y95.044 E73.42141
G1 X42.473 Y94.772 E73.45418
G1 X41.912 Y94.43 E73.48696
G1 X41.397 Y94.022 E73.51974
G1 X40.935 Y93.555 E73.55251
G1 X40.534 Y93.035 E73.58527
G1 X40.198 Y92.471 E73.61803
G1 X39.934 Y91.869 E73.65082
G1 X39.744 Y91.24 E73.6836
G1 X39.633 Y90.593 E73.71635
G1 X39.6 Y90 E73.74598
G1 X39.6 Y20 E77.2383
G1 X39.64 Y19.344 E77.27109
G1 X39.759 Y18.698 E77.30386
G1 X39.956 Y18.071 E77.33665
G0 F3600 X40.356 Y18.148
G1 F1800 X40.627 Y17.576 E77.36823
G1 X40.967 Y17.044 E77.39972
G1 X41.373 Y16.559 E77.43128
G1 X41.836 Y16.129 E77.4628
G1 X42.35 Y15.76 E77.49437
G1 X42.906 Y15.46 E77.52589
G1 X43.495 Y15.232 E77.5574
G1 X44.109 Y15.08 E77.58896
G1 X45 Y15 E77.63359
G1 X65 Y15 E78.63139
G1 X65.631 Y15.04 E78.66294
G1 X66.252 Y15.159 E78.69448
G1 X66.852 Y15.356 E78.72599
G1 X67.424 Y15.627 E78.75757
G1 X67.956 Y15.967 E78.78907
G1 X68.441 Y16.373 E78.82062
G1 X68.871 Y16.836 E78.85215
G1 X69.24 Y17.35 E78.88371
G1 X69.54 Y17.906 E78.91523
G1 X69.768 Y18.495 E78.94674
G1 X69.92 Y19.109 E78.9783
G1 X70 Y20 E79.02293
G1 X70 Y90 E82.51525
G1 X69.96 Y90.631 E82.54679
G1 X69.841 Y91.252 E82.57834
G1 X69.644 Y91.852 E82.60984
G1 X69.373 Y92.424 E82.64142
G1 X69.033 Y92.956 E82.67292
G1 X68.627 Y93.441 E82.70447
G1 X68.164 Y93.871 E82.736
G1 X67.65 Y94.24 E82.76757
G1 X67.094 Y94.54 E82.79909
G1 X66.505 Y94.768 E82.8306
G1 X65.891 Y94.92 E82.86215
G1 X65 Y95 E82.90678
G1 X45 Y95 E83.90459
G1 X44.369 Y94.96 E83.93613
G1 X43.748 Y94.841 E83.96768
G1 X43.148 Y94.644 E83.99918
G1 X42.576 Y94.373 E84.03076
G1 X42.044 Y94.033 E84.06226
G1 X41.559 Y93.627 E84.09382
G1 X41.129 Y93.164 E84.12534
G1 X40.76 Y92.65 E84.15691
G1 X40.46 Y92.094 E84.18843
G1 X40.232 Y91.505 E84.21994
G1 X40.08 Y90.891 E84.2515
G1 X40 Y90 E84.29613
G1 X40 Y20 E87.78844
G1 X40.04 Y19.369 E87.81998
G1 X40.159 Y18.748 E87.85153
G1 X40.356 Y18.148 E87.88304
G0 F3600 X40.755 Y18.227
G1 F1800 X41.026 Y17.684 E87.91331
G1 X41.365 Y17.181 E87.94358
G1 X41.767 Y16.728 E87.97379
G1 X42.225 Y16.331 E88.00403
G1 X42.732 Y15.998 E88.03429
G1 X43.278 Y15.734 E88.06455
G1 X43.854 Y15.545 E88.09479
G1 X44.45 Y15.433 E88.12505
G1 X45 Y15.4 E88.15254
G1 X65 Y15.4 E89.15034
G1 X65.605 Y15.44 E89.18059
G1 X66.199 Y15.559 E89.21082
G1 X66.773 Y15.755 E89.24108
G1 X67.316 Y16.026 E89.27135
G1 X67.819 Y16.365 E89.30161
G1 X68.272 Y16.767 E89.33183
G1 X68.669 Y17.225 E89.36207
G1 X69.002 Y17.732 E89.39233
G1 X69.266 Y18.278 E89.42259
G1 X69.455 Y18.854 E89.45283
G1 X69.567 Y19.45 E89.48309
G1 X69.6 Y20 E89.51058
G1 X69.6 Y90 E93.00289
G1 X69.56 Y90.605 E93.03314
G1 X69.441 Y91.199 E93.06336
G1 X69.245 Y91.773 E93.09362
G1 X68.974 Y92.316 E93.1239
G1 X68.635 Y92.819 E93.15416
G1 X68.233 Y93.272 E93.18438
G1 X67.775 Y93.669 E93.21462
G1 X67.268 Y94.002 E93.24488
G1 X66.722 Y94.266 E93.27514
G1 X66.146 Y94.455 E93.30538
G1 X65.55 Y94.567 E93.33564
G1 X65 Y94.6 E93.36313
G1 X45 Y94.6 E94.36093
G1 X44.395 Y94.56 E94.39118
G1 X43.801 Y94.441 E94.4214
G1 X43.227 Y94.245 E94.45166
G1 X42.684 Y93.974 E94.48194
G1 X42.181 Y93.635 E94.5122
G1 X41.728 Y93.233 E94.54242
G1 X41.331 Y92.775 E94.57266
G1 X40.998 Y92.268 E94.60292
G1 X40.734 Y91.722 E94.63318
G1 X40.545 Y91.146 E94.66342
G1 X40.433 Y90.55 E94.69368
G1 X40.4 Y90 E94.72117
G1 X40.4 Y20 E98.21348
G1 X40.44 Y19.395 E98.24373
G1 X40.559 Y18.801 E98.27395
G1 X40.755 Y18.227 E98.30421
G0 F3600 X41.155 Y18.31
G1 F1800 X41.424 Y17.797 E98.33311
G1 X41.761 Y17.326 E98.36201
G1 X42.16 Y16.906 E98.39091
G1 X42.613 Y16.544 E98.41984
G1 X43.111 Y16.249 E98.44872
G1 X43.645 Y16.024 E98.47763
G1 X44.205 Y15.876 E98.50652
G1 X45 Y15.8 E98.54637
G1 X65 Y15.8 E99.54417
G1 X65.578 Y15.84 E99.57308
G1 X66.145 Y15.959 E99.60198
G1 X66.69 Y16.155 E99.63087
G1 X67.203 Y16.424 E99.65977
G1 X67.674 Y16.761 E99.68867
G1 X68.094 Y17.16 E99.71757
G1 X68.456 Y17.613 E99.7465
G1 X68.751 Y18.111 E99.77538
G1 X68.976 Y18.645 E99.80429
G1 X69.124 Y19.205 E99.83318
G1 X69.2 Y20 E99.87303
